; generated by Slic3r 1.2.9 on 2016-02-02 at 00:02:35

; external perimeters extrusion width = 0.35mm
; perimeters extrusion width = 0.52mm
; infill extrusion width = 0.52mm
; solid infill extrusion width = 0.52mm
; top infill extrusion width = 0.52mm

M107
T0                                  ; T0   : Select Tool 0
M104 S230     ; M104 : Set extruder temperature to 220
G28                                 ; G28  : Move to Origin
G90                                 ; G90  : Set to Absolute Positioning
M106 S0                             ; M106 : Fan On
G92 E0                              ; G92  : Set Position
G1 Z1 F2000                         ; Rapid move to (Z:1) at feedrate: 2000 mm/min (33.33 mm/s)
M109 S230     ; M109 : Set Extruder Temperature and Wait
; -----------------------------------------------------------------------------------------
G1 Z0 E0 F2000      ; Rapid move to (Z:0) extrude to: 0mm at feedrate: 2000 mm/min (33.33 mm/s)
G1 X65 E7 F1500     ; Rapid move to (X:65) extrude to: 7mm at feedrate: 1500 mm/min (25.00 mm/s)
G1 X8 Y2 E14 F1500  ; Rapid move to (X:8, Y:2) extrude to: 14mm at feedrate: 1500 mm/min (25.00 mm/s)
G92 E0              ; G92 : Set Position
G1 E-3 F1000        ; Rapid move extrude to: -3mm at feedrate: 1000 mm/min (16.67 mm/s)
G90                 ; G90 : Set to Absolute Positioning
G21                 ; G21 : Set Units to Millimeters
M104 S220.0         ; M104 : Set extruder temperature to 220.0
G21 ; set units to millimeters
G90 ; use absolute coordinates
M82 ; use absolute distances for extrusion
G92 E0
G1 E-3.00000 F12000.00000
G92 E0
G1 Z0.350 F12000.000
G1 X93.683 Y72.665 F12000.000
G1 E3.00000 F12000.00000
G1 X94.304 Y71.899 E3.10641 F1200.000
; ARC
G1 X94.939 Y71.174 E3.210
G3 X114.692 Y62.758 I19.050 J17.315 E5.600
G1 X115.938 Y62.818 E5.73464 F1200.000
; ARC
G1 X116.919 Y62.911 E5.841
G3 X93.651 Y72.707 I-2.924 J25.589 E20.454
G1 E17.45399 F12000.00000
G92 E0
G1 X99.886 Y77.694 F12000.000
G1 E3.00000 F12000.00000
G1 X100.682 Y76.723 E3.13546 F1200.000
G1 X101.482 Y75.876 E3.26125
G1 X102.610 Y74.850 E3.42576
; ARC
G1 X103.529 Y74.133 E3.552
G3 X114.541 Y70.742 I10.444 J14.313 E4.818
G1 X115.094 Y70.759 E4.87725 F1200.000
; ARC
G1 X116.254 Y70.869 E5.003
G3 X99.853 Y77.735 I-2.258 J17.631 E15.042
G1 X100.453 Y78.154 F12000.000
G1 X101.222 Y77.215 E15.17269 F1200.000
G1 X102.003 Y76.387 E15.29549
G1 X103.070 Y75.417 E15.45107
G1 X103.967 Y74.717 E15.57387
G1 X105.038 Y73.998 E15.71306
G1 X106.296 Y73.293 E15.86863
; ARC
G1 X107.328 Y72.813 E15.991
G3 X113.749 Y71.457 I6.669 J15.697 E16.704
G1 X115.038 Y71.487 E16.84294 F1200.000
; ARC
G1 X116.171 Y71.595 E16.966
G3 X100.420 Y78.195 I-2.176 J16.905 E26.589
G1 X101.020 Y78.614 F12000.000
G1 X101.762 Y77.706 E26.71519 F1200.000
G1 X102.524 Y76.899 E26.83501
G1 X103.530 Y75.984 E26.98164
G1 X104.405 Y75.301 E27.10146
G1 X105.431 Y74.614 E27.23469
G1 X106.616 Y73.949 E27.38132
; ARC
G1 X107.623 Y73.481 E27.501
G3 X114.513 Y72.202 I6.327 J14.837 E28.263
G1 X114.983 Y72.215 E28.31392 F1200.000
; ARC
G1 X116.089 Y72.320 E28.434
G3 X100.987 Y78.654 I-2.093 J16.180 E37.641
G1 X101.587 Y79.073 F12000.000
G1 X102.302 Y78.197 E37.76295 F1200.000
G1 X103.045 Y77.410 E37.87979
G1 X103.989 Y76.551 E38.01748
G1 X104.843 Y75.885 E38.13432
G1 X105.824 Y75.229 E38.26159
G1 X106.937 Y74.605 E38.39928
; ARC
G1 X107.919 Y74.149 E38.516
G3 X113.749 Y72.917 I6.075 J14.339 E39.163
G1 X114.928 Y72.943 E39.29015 F1200.000
; ARC
G1 X116.006 Y73.045 E39.407
G3 X101.554 Y79.114 I-2.010 J15.455 E48.198
G1 X102.153 Y79.533 F12000.000
G1 X102.842 Y78.688 E48.31598 F1200.000
G1 X103.567 Y77.921 E48.42984
G1 X104.449 Y77.118 E48.55860
G1 X105.281 Y76.469 E48.67246
G1 X106.216 Y75.845 E48.79376
G1 X107.257 Y75.261 E48.92252
; ARC
G1 X108.214 Y74.816 E49.036
G3 X114.486 Y73.661 I5.742 J13.529 E49.730
G1 X114.873 Y73.671 E49.77166 F1200.000
; ARC
G1 X115.923 Y73.771 E49.886
G3 X102.121 Y79.574 I-1.927 J14.729 E58.261
G1 X102.720 Y79.993 F12000.000
G1 X103.382 Y79.180 E58.37429 F1200.000
G1 X104.088 Y78.433 E58.48517
G1 X104.909 Y77.685 E58.60499
G1 X105.753 Y77.029 E58.72033
G1 X106.609 Y76.460 E58.83121
G1 X107.577 Y75.917 E58.95102
; ARC
G1 X108.547 Y75.468 E59.066
G3 X113.749 Y74.377 I5.448 J13.030 E59.643
G1 X114.818 Y74.399 E59.75845 F1200.000
; ARC
G1 X115.882 Y74.501 E59.874
G3 X102.688 Y80.034 I-1.887 J13.999 E67.829
G1 X103.287 Y80.452 F12000.000
G1 X103.922 Y79.671 E67.93788 F1200.000
G1 X104.609 Y78.944 E68.04578
G1 X105.369 Y78.252 E68.15665
G1 X106.169 Y77.629 E68.26604
G1 X107.001 Y77.076 E68.37394
G1 X107.898 Y76.573 E68.48481
; ARC
G1 X108.804 Y76.152 E68.593
G3 X114.458 Y75.121 I5.150 J12.177 E69.218
G1 X114.762 Y75.127 E69.25051 F1200.000
; ARC
G1 X115.758 Y75.221 E69.358
G3 X103.257 Y80.495 I-1.763 J13.279 E76.903
G1 E73.90259 F12000.00000
G92 E0
G1 X124.219 Y95.898 F12000.000
G1 E3.00000 F12000.00000
G1 X123.804 Y96.453 E3.07478 F1200.000
G1 X123.174 Y97.172 E3.17790
G1 X122.492 Y97.841 E3.28101
; ARC
G1 X121.761 Y98.457 E3.384
G3 X114.443 Y75.888 I-7.766 J-9.957 E8.614
G1 X114.712 Y75.893 E8.64303 F1200.000
; ARC
G1 X115.663 Y75.983 E8.746
G3 X124.251 Y95.856 I-1.666 J12.516 E11.553
G1 X123.872 Y95.857 F12000.000
G1 X123.636 Y95.461 F12000.000
G1 X123.236 Y95.993 E11.62475 F1200.000
G1 X122.643 Y96.670 E11.72191
G1 X122.001 Y97.301 E11.81906
G1 X121.312 Y97.881 E11.91621
G1 X120.582 Y98.408 E12.01336
; ARC
G1 X119.813 Y98.877 E12.111
G3 X114.430 Y76.618 I-5.818 J-10.377 E16.845
G1 X114.670 Y76.622 E16.87092 F1200.000
; ARC
G1 X115.567 Y76.707 E16.968
G3 X123.667 Y95.419 I-1.570 J11.791 E19.611
G1 X123.052 Y95.023 F12000.000
G1 X122.669 Y95.533 E19.67963 F1200.000
G1 X122.112 Y96.169 E19.77081
G1 X121.509 Y96.761 E19.86200
G1 X120.863 Y97.305 E19.95319
G1 X120.177 Y97.799 E20.04438
G1 X119.456 Y98.240 E20.13556
; ARC
G1 X118.704 Y98.625 E20.227
G3 X114.416 Y77.347 I-4.709 J-10.125 E24.581
G1 X114.629 Y77.351 E24.60374 F1200.000
; ARC
G1 X115.470 Y77.431 E24.695
G3 X123.083 Y94.981 I-1.473 J11.068 E27.174
G1 X124.484 Y86.004 F12000.000
G1 X116.492 Y78.012 E28.40118 F1200.000
G1 X115.200 Y77.759 E28.54425
G1 X124.731 Y87.290 E30.00826
G1 X124.816 Y88.414 E30.13069
G1 X114.082 Y77.680 E31.77938
G1 X113.067 Y77.704 E31.88965
; ARC
G1 X124.796 Y89.433 E33.691
G3 X111.499 Y98.994 I-10.776 J-0.960 E81.589
G1 X109.917 Y98.451 F12000.000
G1 X104.043 Y92.577 E82.49084 F1200.000
G1 X105.880 Y95.453 F12000.000
G1 X106.986 Y96.559 E82.66077 F1200.000
G1 X123.944 Y84.424 F12000.000
G1 X118.071 Y78.551 E83.56285 F1200.000
G1 X120.912 Y80.354 F12000.000
G1 X122.109 Y81.551 E83.74665 F1200.000
M104 S218 ; set temperature
G1 E80.74665 F12000.00000
G92 E0
G1 Z0.550 F12000.000
G1 X123.701 Y95.510 F12000.000
G1 E3.00000 F12000.00000
G1 X123.300 Y96.045 E3.02717 F3600.000
G1 X122.703 Y96.727 E3.06401
G1 X122.056 Y97.362 E3.10085
G1 X121.363 Y97.946 E3.13769
G1 X120.627 Y98.476 E3.17454
; ARC
G1 X119.854 Y98.949 E3.211
G3 X113.950 Y76.526 I-5.859 J-10.449 E4.987
G1 X114.675 Y76.540 E5.01663 F3600.000
; ARC
G1 X115.578 Y76.626 E5.053
G3 X123.733 Y95.468 I-1.581 J11.873 E6.056
G1 X124.086 Y95.798 F12000.000
G1 X123.674 Y96.348 E6.08365 F3600.000
G1 X123.053 Y97.057 E6.12197
G1 X122.380 Y97.718 E6.16029
G1 X121.659 Y98.326 E6.19862
G1 X120.894 Y98.877 E6.23694
G1 X120.089 Y99.369 E6.27526
; ARC
G1 X119.250 Y99.799 E6.314
G3 X113.959 Y76.045 I-5.255 J-11.299 E8.123
G1 X114.702 Y76.059 E8.15306 F3600.000
; ARC
G1 X115.641 Y76.148 E8.191
G3 X124.118 Y95.756 I-1.644 J12.351 E9.234
G1 X124.401 Y96.035 F12000.000
G1 X123.981 Y96.596 E9.25259 F1800.000
G1 X123.340 Y97.328 E9.27782
G1 X122.645 Y98.010 E9.30306
G1 X121.901 Y98.637 E9.32830
G1 X121.112 Y99.205 E9.35354
G1 X120.282 Y99.713 E9.37877
; ARC
G1 X119.416 Y100.156 E9.404
G3 X113.966 Y75.651 I-5.421 J-11.656 E10.596
G1 X114.725 Y75.666 E10.61540 F1800.000
; ARC
G1 X115.693 Y75.758 E10.641
G3 X124.433 Y95.993 I-1.696 J12.741 E11.328
G1 X124.054 Y95.993 F12000.000
G1 X122.774 Y96.180 F12000.000
G1 X121.636 Y97.318 E11.39366 F6000.000
G1 E8.39366 F12000.00000
G92 E0
G1 X119.384 Y98.884 F12000.000
G1 E3.00000 F12000.00000
G1 X124.375 Y93.893 E3.28914 F6000.000
G1 X124.967 Y92.614 F12000.000
G1 X118.111 Y99.471 E3.68638 F6000.000
G1 E0.68638 F12000.00000
G92 E0
G1 X125.307 Y91.589 F12000.000
G1 E3.00000 F12000.00000
G1 X117.078 Y99.818 E3.47680 F6000.000
G1 X116.175 Y100.035 E3.51482
G1 X125.525 Y90.685 E4.05654
G1 X125.660 Y89.864 E4.09060
G1 X115.354 Y100.170 E4.68768
; ARC
G1 X114.597 Y100.242 E4.719
G2 X102.682 Y85.407 I-0.593 J-11.733 E39.129
G1 X103.036 Y84.367 F12000.000
G1 X109.864 Y77.539 E39.52415 F6000.000
G1 X108.595 Y78.122 F12000.000
G1 X103.605 Y83.113 E39.81328 F6000.000
G1 E36.81328 F12000.00000
G92 E0
G1 X105.241 Y80.790 F12000.000
G1 E3.00000 F12000.00000
G1 X106.242 Y79.789 E3.05797 F6000.000
G1 E0.05797 F12000.00000
G92 E0
G1 Z0.750 F12000.000
G1 X123.703 Y95.506 F12000.000
G1 E3.00000 F12000.00000
G1 X123.263 Y96.086 E3.02957 F3600.000
G1 X122.661 Y96.767 E3.06650
G1 X122.181 Y97.238 E3.09384
G1 X121.312 Y97.981 E3.14031
G1 X120.580 Y98.504 E3.17689
; ARC
G1 X119.802 Y98.975 E3.214
G3 X114.499 Y76.537 I-5.807 J-10.475 E5.009
G1 X115.638 Y76.637 E5.05552 F3600.000
; ARC
G1 X116.525 Y76.793 E5.092
G3 X123.734 Y95.464 I-2.527 J11.705 E6.055
G1 X124.086 Y95.796 F12000.000
G1 X123.636 Y96.391 E6.08512 F3600.000
G1 X123.011 Y97.098 E6.12349
G1 X122.506 Y97.593 E6.15219
G1 X121.609 Y98.361 E6.20019
G1 X120.844 Y98.906 E6.23836
G1 X120.037 Y99.395 E6.27673
; ARC
G1 X119.408 Y99.717 E6.305
G3 X114.524 Y76.057 I-5.413 J-11.217 E8.144
G1 X115.701 Y76.159 E8.19238 F3600.000
; ARC
G1 X116.626 Y76.323 E8.231
G3 X124.118 Y95.754 I-2.628 J12.175 E9.233
G1 X124.400 Y96.034 F12000.000
G1 X123.941 Y96.640 E9.25224 F1800.000
G1 X123.297 Y97.370 E9.27749
G1 X122.773 Y97.884 E9.29652
G1 X121.852 Y98.671 E9.32796
G1 X121.061 Y99.236 E9.35316
G1 X120.229 Y99.740 E9.37841
; ARC
G1 X119.575 Y100.074 E9.397
G3 X114.545 Y75.663 I-5.580 J-11.574 E10.608
G1 X115.753 Y75.768 E10.63992 F1800.000
; ARC
G1 X116.710 Y75.937 E10.665
G3 X124.432 Y95.992 I-2.712 J12.561 E11.325
G1 X124.052 Y95.999 F12000.000
M106 S252.45
G1 E8.32523 F12000.00000
G92 E0
G1 Z0.950 F12000.000
G1 X123.693 Y95.490 F12000.000
G1 E3.00000 F12000.00000
G1 X123.137 Y96.204 E3.03677 F3600.000
G1 X122.528 Y96.873 E3.07353
G1 X121.870 Y97.494 E3.11030
G1 X121.168 Y98.064 E3.14706
G1 X120.424 Y98.579 E3.18383
G1 X119.643 Y99.036 E3.22060
; ARC
G1 X118.830 Y99.433 E3.257
G3 X114.160 Y76.552 I-4.835 J-10.933 E4.992
G1 X114.899 Y76.580 E5.02212 F3600.000
; ARC
G1 X115.798 Y76.682 E5.059
G3 X123.722 Y95.446 I-1.801 J11.817 E6.049
G1 X124.094 Y95.756 F12000.000
G1 X123.505 Y96.514 E6.08841 F3600.000
G1 X122.872 Y97.210 E6.12666
G1 X122.188 Y97.856 E6.16491
G1 X121.457 Y98.449 E6.20315
G1 X120.683 Y98.985 E6.24140
G1 X119.871 Y99.461 E6.27965
; ARC
G1 X119.025 Y99.874 E6.318
G3 X114.179 Y76.071 I-5.030 J-11.374 E8.123
G1 X114.936 Y76.100 E8.15372 F3600.000
; ARC
G1 X115.871 Y76.206 E8.192
G3 X124.123 Y95.713 I-1.873 J12.293 E9.222
G1 X124.422 Y95.975 F12000.000
G1 X123.807 Y96.768 E9.24778 F1800.000
G1 X123.153 Y97.486 E9.27297
G1 X122.447 Y98.153 E9.29816
G1 X121.693 Y98.765 E9.32335
G1 X120.895 Y99.317 E9.34854
G1 X120.057 Y99.808 E9.37373
; ARC
G1 X119.184 Y100.234 E9.399
G3 X114.194 Y75.677 I-5.189 J-11.734 E10.588
G1 X114.966 Y75.706 E10.60797 F1800.000
; ARC
G1 X115.930 Y75.816 E10.633
G3 X124.451 Y95.931 I-1.932 J12.683 E11.311
G1 X124.074 Y95.935 F12000.000
G1 E8.31102 F12000.00000
G92 E0
G1 Z1.150 F12000.000
G1 X123.658 Y95.464 F12000.000
G1 E3.00000 F12000.00000
G1 X123.103 Y96.175 E3.03663 F3600.000
; ARC
G1 X122.497 Y96.842 E3.073
G3 X114.711 Y76.617 I-8.502 J-8.342 E5.007
G1 X115.798 Y76.727 E5.05150 F3600.000
; ARC
G1 X116.677 Y76.895 E5.088
G3 X123.687 Y95.421 I-2.683 J11.605 E6.038
G1 X124.058 Y95.731 F12000.000
G1 X123.471 Y96.485 E6.07697 F3600.000
G1 X122.840 Y97.179 E6.11508
G1 X122.159 Y97.823 E6.15319
G1 X121.430 Y98.414 E6.19130
G1 X120.659 Y98.948 E6.22941
G1 X119.850 Y99.422 E6.26752
; ARC
G1 X119.007 Y99.833 E6.306
G3 X114.745 Y76.136 I-5.012 J-11.333 E8.127
G1 X115.868 Y76.250 E8.17315 F3600.000
; ARC
G1 X116.785 Y76.426 E8.211
G3 X124.087 Y95.687 I-2.790 J12.074 E9.199
G1 X124.386 Y95.949 F12000.000
G1 X123.773 Y96.739 E9.22508 F1800.000
G1 X123.122 Y97.455 E9.25018
G1 X122.418 Y98.120 E9.27528
G1 X121.667 Y98.729 E9.30039
G1 X120.871 Y99.280 E9.32549
G1 X120.036 Y99.769 E9.35059
; ARC
G1 X119.167 Y100.194 E9.376
G3 X114.772 Y75.743 I-5.172 J-11.694 E10.576
G1 X115.925 Y75.860 E10.60568 F1800.000
; ARC
G1 X116.874 Y76.042 E10.631
G3 X124.415 Y95.905 I-2.878 J12.458 E11.281
G1 X124.039 Y95.910 F12000.000
G1 E8.28118 F12000.00000
G92 E0
G1 Z1.350 F12000.000
G1 X123.595 Y95.419 F12000.000
G1 E3.00000 F12000.00000
G1 X123.045 Y96.126 E3.03639 F3600.000
; ARC
G1 X122.442 Y96.788 E3.073
G3 X114.339 Y76.679 I-8.448 J-8.288 E4.979
G1 X114.890 Y76.700 E5.00171 F3600.000
; ARC
G1 X115.780 Y76.802 E5.038
G3 X123.624 Y95.376 I-1.783 J11.697 E6.019
G1 X123.975 Y95.715 F12000.000
G1 X123.413 Y96.436 E6.05577 F3600.000
G1 X122.786 Y97.125 E6.09364
G1 X122.108 Y97.765 E6.13152
G1 X121.384 Y98.352 E6.16939
G1 X120.618 Y98.883 E6.20727
G1 X120.349 Y99.040 E6.21991
; ARC
G1 X119.814 Y99.354 E6.245
G3 X114.357 Y76.198 I-5.819 J-10.854 E8.078
G1 X114.927 Y76.220 E8.10104 F3600.000
; ARC
G1 X115.853 Y76.326 E8.139
G3 X124.005 Y95.672 I-1.859 J12.175 E9.160
G1 X124.285 Y95.958 F12000.000
G1 X123.714 Y96.690 E9.18424 F1800.000
G1 X123.067 Y97.402 E9.20920
G1 X122.368 Y98.062 E9.23415
G1 X121.621 Y98.668 E9.25910
G1 X120.830 Y99.216 E9.28405
G1 X120.549 Y99.380 E9.29250
; ARC
G1 X120.000 Y99.702 E9.309
G3 X114.372 Y75.805 I-6.005 J-11.202 E10.516
G1 X114.957 Y75.827 E10.53164 F1800.000
; ARC
G1 X115.912 Y75.936 E10.557
G3 X124.317 Y95.915 I-1.918 J12.564 E11.230
G1 X123.938 Y95.918 F12000.000
G1 E8.22978 F12000.00000
G92 E0
G1 Z1.550 F12000.000
G1 X123.474 Y95.410 F12000.000
G1 E3.00000 F12000.00000
G1 X122.984 Y96.046 E3.03267 F3600.000
; ARC
G1 X122.385 Y96.707 E3.069
G3 X114.811 Y76.793 I-8.390 J-8.207 E4.980
G1 X115.693 Y76.888 E5.01559 F3600.000
; ARC
G1 X116.721 Y77.086 E5.058
G3 X123.504 Y95.366 I-2.723 J11.412 E5.993
G1 X123.873 Y95.679 F12000.000
G1 X123.352 Y96.356 E6.02817 F3600.000
G1 X122.729 Y97.043 E6.06584
G1 X122.057 Y97.681 E6.10349
G1 X121.340 Y98.263 E6.14103
G1 X120.442 Y98.873 E6.18515
G1 X119.778 Y99.262 E6.21642
; ARC
G1 X118.946 Y99.670 E6.254
G3 X114.845 Y76.313 I-4.951 J-11.170 E8.055
G1 X115.764 Y76.412 E8.09249 F3600.000
; ARC
G1 X116.829 Y76.617 E8.137
G3 X123.902 Y95.635 I-2.831 J11.881 E9.110
G1 X124.199 Y95.900 F12000.000
G1 X123.654 Y96.610 E9.13302 F1800.000
G1 X123.011 Y97.319 E9.15784
G1 X122.317 Y97.977 E9.18265
G1 X121.576 Y98.580 E9.20743
G1 X120.653 Y99.207 E9.23638
G1 X119.965 Y99.610 E9.25706
; ARC
G1 X119.106 Y100.030 E9.282
G3 X114.872 Y75.920 I-5.111 J-11.530 E10.469
G1 X115.823 Y76.022 E10.49333 F1800.000
; ARC
G1 X116.918 Y76.233 E10.522
G3 X124.229 Y95.856 I-2.919 J12.265 E11.163
G1 X123.852 Y95.861 F12000.000
G1 E8.16333 F12000.00000
G92 E0
G1 Z1.750 F12000.000
G1 X123.394 Y95.286 F12000.000
G1 E3.00000 F12000.00000
G1 X122.942 Y95.879 E3.03029 F3600.000
; ARC
G1 X122.351 Y96.542 E3.066
G3 X115.331 Y76.980 I-8.356 J-8.042 E4.980
G1 X116.203 Y77.115 E5.01576 F3600.000
; ARC
G1 X117.068 Y77.318 E5.052
G3 X123.426 Y95.244 I-3.071 J11.181 E5.958
G1 X123.777 Y95.577 F12000.000
G1 X123.314 Y96.185 E5.98905 F3600.000
G1 X122.698 Y96.876 E6.02665
G1 X122.031 Y97.517 E6.06425
G1 X121.318 Y98.106 E6.10185
G1 X120.685 Y98.551 E6.13327
G1 X119.763 Y99.112 E6.17716
; ARC
G1 X118.936 Y99.522 E6.215
G3 X114.306 Y76.430 I-4.941 J-11.022 E7.976
G1 X115.384 Y76.502 E8.01949 F3600.000
; ARC
G1 X116.295 Y76.642 E8.057
G3 X123.809 Y95.536 I-2.300 J11.857 E9.039
G1 X124.090 Y95.816 F12000.000
G1 X123.618 Y96.436 E9.05914 F1800.000
G1 X122.982 Y97.149 E9.08392
G1 X122.294 Y97.812 E9.10871
G1 X121.557 Y98.420 E9.13349
G1 X120.901 Y98.880 E9.15427
G1 X119.953 Y99.458 E9.18308
; ARC
G1 X119.098 Y99.881 E9.208
