; generated by Slic3r 1.2.9 on 2016-02-02 at 00:02:35

; external perimeters extrusion width = 0.35mm
; perimeters extrusion width = 0.52mm
; infill extrusion width = 0.52mm
; solid infill extrusion width = 0.52mm
; top infill extrusion width = 0.52mm

M107
T0                                  ; T0   : Select Tool 0
M104 S230     ; M104 : Set extruder temperature to 220
G28                                 ; G28  : Move to Origin
G90                                 ; G90  : Set to Absolute Positioning
M106 S0                             ; M106 : Fan On
G92 E0                              ; G92  : Set Position
G1 Z1 F2000                         ; Rapid move to (Z:1) at feedrate: 2000 mm/min (33.33 mm/s)
M109 S230     ; M109 : Set Extruder Temperature and Wait
; -----------------------------------------------------------------------------------------
G1 Z0 E0 F2000      ; Rapid move to (Z:0) extrude to: 0mm at feedrate: 2000 mm/min (33.33 mm/s)
G1 X65 E7 F1500     ; Rapid move to (X:65) extrude to: 7mm at feedrate: 1500 mm/min (25.00 mm/s)
G1 X8 Y2 E14 F1500  ; Rapid move to (X:8, Y:2) extrude to: 14mm at feedrate: 1500 mm/min (25.00 mm/s)
G92 E0              ; G92 : Set Position
G1 E-3 F1000        ; Rapid move extrude to: -3mm at feedrate: 1000 mm/min (16.67 mm/s)
G90                 ; G90 : Set to Absolute Positioning
G21                 ; G21 : Set Units to Millimeters
M104 S220.0         ; M104 : Set extruder temperature to 220.0
G21 ; set units to millimeters
G90 ; use absolute coordinates
M82 ; use absolute distances for extrusion
G92 E0
G1 E-3.00000 F12000.00000
G92 E0
G1 Z0.350 F12000.000
G1 X93.683 Y72.665 F12000.000
G1 E3.00000 F12000.00000
G1 X94.304 Y71.899 E3.10641 F1200.000
G1 X94.939 Y71.174 E3.21036
G1 X95.616 Y70.457 E3.31677
G1 X96.304 Y69.782 E3.42072
G1 X97.033 Y69.119 E3.52712
G1 X97.770 Y68.498 E3.63108
G1 X98.547 Y67.892 E3.73748
G1 X99.329 Y67.328 E3.84143
G1 X100.150 Y66.782 E3.94784
G1 X100.972 Y66.280 E4.05179
G1 X101.832 Y65.797 E4.15820
G1 X102.690 Y65.358 E4.26215
G1 X103.584 Y64.943 E4.36856
G1 X104.473 Y64.570 E4.47251
G1 X105.396 Y64.223 E4.57892
G1 X106.310 Y63.918 E4.68287
G1 X107.256 Y63.642 E4.78927
G1 X108.191 Y63.407 E4.89323
G1 X109.156 Y63.203 E4.99963
G1 X110.105 Y63.040 E5.10358
G1 X111.083 Y62.910 E5.20999
G1 X112.042 Y62.819 E5.31394
G1 X113.026 Y62.763 E5.42036
G1 X113.990 Y62.745 E5.52430
G1 X114.692 Y62.758 E5.60009
G1 X115.938 Y62.818 E5.73464 F1200.000
G1 X116.919 Y62.911 E5.84105
G1 X117.874 Y63.038 E5.94500
G1 X118.846 Y63.205 E6.05141
G1 X119.789 Y63.405 E6.15536
G1 X120.745 Y63.645 E6.26177
G1 X121.670 Y63.915 E6.36572
G1 X122.606 Y64.226 E6.47213
G1 X123.508 Y64.565 E6.57608
G1 X124.417 Y64.947 E6.68248
G1 X125.290 Y65.353 E6.78644
G1 X126.168 Y65.803 E6.89284
G1 X127.009 Y66.274 E6.99679
G1 X127.850 Y66.788 E7.10320
G1 X128.652 Y67.322 E7.20716
G1 X129.452 Y67.898 E7.31356
G1 X130.212 Y68.491 E7.41751
G1 X130.966 Y69.126 E7.52392
G1 X131.679 Y69.775 E7.62787
G1 X132.383 Y70.465 E7.73428
G1 X133.044 Y71.166 E7.83823
G1 X133.507 Y71.694 E7.91402
G1 X134.301 Y72.656 E8.04857
G1 X134.892 Y73.445 E8.15498
G1 X135.441 Y74.237 E8.25893
G1 X135.971 Y75.068 E8.36534
G1 X136.458 Y75.900 E8.46929
G1 X136.924 Y76.769 E8.57570
G1 X137.347 Y77.635 E8.67964
G1 X137.746 Y78.537 E8.78605
G1 X138.102 Y79.432 E8.89001
G1 X138.431 Y80.361 E8.99641
G1 X138.718 Y81.281 E9.10036
G1 X138.977 Y82.233 E9.20677
G1 X139.194 Y83.171 E9.31072
G1 X139.379 Y84.140 E9.41713
G1 X139.524 Y85.092 E9.52108
G1 X139.636 Y86.072 E9.62749
G1 X139.709 Y87.033 E9.73144
G1 X139.746 Y88.018 E9.83784
G1 X139.746 Y88.982 E9.94180
G1 X139.709 Y89.967 E10.04821
G1 X139.636 Y90.928 E10.15215
G1 X139.524 Y91.908 E10.25856
G1 X139.379 Y92.860 E10.36252
G1 X139.194 Y93.829 E10.46892
G1 X138.977 Y94.767 E10.57287
G1 X138.718 Y95.719 E10.67928
G1 X138.431 Y96.639 E10.78323
G1 X138.102 Y97.568 E10.88964
G1 X137.746 Y98.463 E10.99359
G1 X137.347 Y99.365 E11.10000
G1 X136.924 Y100.231 E11.20395
G1 X136.458 Y101.100 E11.31036
G1 X135.971 Y101.932 E11.41431
G1 X135.441 Y102.763 E11.52072
G1 X134.892 Y103.555 E11.62466
G1 X134.301 Y104.344 E11.73107
G1 X133.694 Y105.092 E11.83503
G1 X133.044 Y105.834 E11.94143
G1 X132.383 Y106.535 E12.04538
G1 X131.679 Y107.225 E12.15179
G1 X130.966 Y107.874 E12.25574
G1 X130.212 Y108.509 E12.36215
G1 X129.452 Y109.102 E12.46610
G1 X128.652 Y109.678 E12.57250
G1 X127.850 Y110.212 E12.67646
G1 X127.009 Y110.726 E12.78287
G1 X126.168 Y111.197 E12.88682
G1 X125.290 Y111.647 E12.99322
G1 X124.417 Y112.053 E13.09718
G1 X123.508 Y112.435 E13.20358
G1 X122.606 Y112.774 E13.30754
G1 X121.670 Y113.085 E13.41394
G1 X120.745 Y113.355 E13.51789
G1 X119.789 Y113.595 E13.62430
G1 X118.846 Y113.795 E13.72825
G1 X117.874 Y113.962 E13.83466
G1 X116.919 Y114.089 E13.93861
G1 X115.938 Y114.182 E14.04502
G1 X114.976 Y114.237 E14.14897
G1 X113.990 Y114.255 E14.25538
G1 X113.026 Y114.237 E14.35933
G1 X112.042 Y114.181 E14.46573
G1 X111.083 Y114.090 E14.56969
G1 X110.105 Y113.960 E14.67609
G1 X109.156 Y113.797 E14.78004
G1 X108.191 Y113.593 E14.88645
G1 X107.256 Y113.358 E14.99040
G1 X106.310 Y113.082 E15.09681
G1 X105.396 Y112.777 E15.20076
G1 X104.738 Y112.530 E15.27655
G1 X103.584 Y112.057 E15.41110
G1 X102.690 Y111.642 E15.51751
G1 X101.832 Y111.203 E15.62146
G1 X100.972 Y110.720 E15.72787
G1 X100.150 Y110.218 E15.83182
G1 X99.329 Y109.672 E15.93822
G1 X98.547 Y109.108 E16.04218
G1 X97.770 Y108.502 E16.14859
G1 X97.033 Y107.881 E16.25254
G1 X96.304 Y107.218 E16.35895
G1 X95.616 Y106.543 E16.46289
G1 X95.134 Y106.032 E16.53868
G1 X94.304 Y105.101 E16.67324
G1 X93.683 Y104.335 E16.77964
G1 X93.105 Y103.564 E16.88359
G1 X92.543 Y102.754 E16.99000
G1 X92.025 Y101.941 E17.09395
G1 X91.670 Y101.335 E17.16974
G1 X91.072 Y100.241 E17.30430
G1 X90.639 Y99.355 E17.41070
G1 X90.249 Y98.474 E17.51465
G1 X89.885 Y97.558 E17.62106
G1 X89.563 Y96.649 E17.72501
G1 X89.269 Y95.708 E17.83142
G1 X89.017 Y94.778 E17.93537
G1 X88.795 Y93.818 E18.04178
G1 X88.614 Y92.871 E18.14573
G1 X88.465 Y91.896 E18.25214
G1 X88.356 Y90.939 E18.35609
G1 X88.281 Y89.956 E18.46250
G1 X88.245 Y88.993 E18.56645
G1 X88.245 Y88.007 E18.67285
G1 X88.281 Y87.044 E18.77680
G1 X88.356 Y86.061 E18.88322
G1 X88.465 Y85.104 E18.98716
G1 X88.571 Y84.409 E19.06295
G1 X88.795 Y83.183 E19.19750
G1 X89.017 Y82.222 E19.30392
G1 X89.269 Y81.292 E19.40786
G1 X89.563 Y80.351 E19.51427
G1 X89.885 Y79.442 E19.61822
G1 X90.249 Y78.526 E19.72463
G1 X90.639 Y77.645 E19.82858
G1 X91.072 Y76.759 E19.93499
G1 X91.527 Y75.910 E20.03894
G1 X92.025 Y75.059 E20.14535
G1 X92.543 Y74.246 E20.24930
G1 X93.105 Y73.436 E20.35570
G1 X93.651 Y72.707 E20.45399
G1 E17.45399 F12000.00000
G92 E0
G1 X99.886 Y77.694 F12000.000
G1 E3.00000 F12000.00000
G1 X100.682 Y76.723 E3.13546 F1200.000
G1 X101.482 Y75.876 E3.26125
G1 X102.610 Y74.850 E3.42576
G1 X103.529 Y74.133 E3.55154
G1 X104.646 Y73.383 E3.69669
G1 X105.976 Y72.637 E3.86120
G1 X107.033 Y72.146 E3.98698
G1 X108.290 Y71.666 E4.13213
G1 X109.753 Y71.239 E4.29665
G1 X110.894 Y70.998 E4.42243
G1 X112.227 Y70.814 E4.56758
G1 X113.569 Y70.730 E4.71273
G1 X114.541 Y70.742 E4.81757
G1 X115.094 Y70.759 E4.87725 F1200.000
G1 X116.254 Y70.869 E5.00303
G1 X117.581 Y71.091 E5.14818
G1 X118.887 Y71.412 E5.29333
G1 X120.166 Y71.831 E5.43848
G1 X121.409 Y72.345 E5.58363
G1 X122.609 Y72.952 E5.72878
G1 X123.761 Y73.648 E5.87393
G1 X124.997 Y74.540 E6.03844
G1 X126.022 Y75.412 E6.18359
G1 X126.854 Y76.228 E6.30937
G1 X127.499 Y76.955 E6.41421
G1 X127.858 Y77.375 E6.47389
G1 X128.558 Y78.308 E6.59967
G1 X129.287 Y79.438 E6.74482
G1 X129.928 Y80.621 E6.88997
G1 X130.479 Y81.848 E7.03512
G1 X130.934 Y83.114 E7.18027
G1 X131.334 Y84.585 E7.34478
G1 X131.580 Y85.908 E7.48993
G1 X131.726 Y87.245 E7.63508
G1 X131.770 Y88.590 E7.78023
G1 X131.726 Y89.755 E7.90601
G1 X131.580 Y91.092 E8.05116
G1 X131.334 Y92.415 E8.19631
G1 X130.988 Y93.715 E8.34146
G1 X130.545 Y94.985 E8.48661
G1 X130.007 Y96.218 E8.63176
G1 X129.378 Y97.407 E8.77691
G1 X128.660 Y98.545 E8.92206
G1 X127.858 Y99.625 E9.06721
G1 X126.854 Y100.772 E9.23172
G1 X125.889 Y101.709 E9.37687
G1 X124.997 Y102.460 E9.50265
G1 X123.910 Y103.253 E9.64780
G1 X122.766 Y103.960 E9.79295
G1 X121.572 Y104.579 E9.93810
G1 X120.334 Y105.106 E10.08325
G1 X118.887 Y105.588 E10.24776
G1 X117.581 Y105.909 E10.39291
G1 X116.254 Y106.131 E10.53806
G1 X114.914 Y106.251 E10.68321
G1 X113.749 Y106.273 E10.80899
G1 X112.405 Y106.203 E10.95414
G1 X111.071 Y106.032 E11.09929
G1 X109.753 Y105.761 E11.24444
G1 X108.460 Y105.391 E11.38959
G1 X107.199 Y104.924 E11.53474
G1 X105.816 Y104.281 E11.69925
G1 X104.646 Y103.617 E11.84440
G1 X103.529 Y102.867 E11.98955
G1 X102.473 Y102.034 E12.13470
G1 X101.610 Y101.250 E12.26049
G1 X100.938 Y100.548 E12.36533
G1 X100.563 Y100.141 E12.42500
G1 X99.829 Y99.236 E12.55079
G1 X99.058 Y98.134 E12.69594
G1 X98.372 Y96.977 E12.84108
G1 X97.776 Y95.771 E12.98623
G1 X97.212 Y94.354 E13.15075
G1 X96.818 Y93.068 E13.29589
G1 X96.555 Y91.932 E13.42168
G1 X96.402 Y90.972 E13.52652
G1 X96.325 Y90.425 E13.58620
G1 X96.237 Y89.262 E13.71198
G1 X96.230 Y87.917 E13.85713
G1 X96.325 Y86.575 E14.00228
G1 X96.521 Y85.244 E14.14743
G1 X96.818 Y83.932 E14.29258
G1 X97.272 Y82.477 E14.45709
G1 X97.776 Y81.229 E14.60224
G1 X98.372 Y80.023 E14.74739
G1 X99.058 Y78.866 E14.89254
G1 X99.853 Y77.735 E15.04170
G1 X100.453 Y78.154 F12000.000
G1 X101.222 Y77.215 E15.17269 F1200.000
G1 X102.003 Y76.387 E15.29549
G1 X103.070 Y75.417 E15.45107
G1 X103.967 Y74.717 E15.57387
G1 X105.038 Y73.998 E15.71306
G1 X106.296 Y73.293 E15.86863
G1 X107.328 Y72.813 E15.99143
G1 X108.534 Y72.354 E16.13062
G1 X109.918 Y71.950 E16.28619
G1 X111.031 Y71.715 E16.40899
G1 X112.309 Y71.539 E16.54818
G1 X113.749 Y71.457 E16.70375
G1 X115.038 Y71.487 E16.84294 F1200.000
G1 X116.171 Y71.595 E16.96575
G1 X117.089 Y71.747 E17.06612
G1 X117.592 Y71.839 E17.12132
G1 X118.696 Y72.116 E17.24413
G1 X119.922 Y72.519 E17.38331
G1 X121.114 Y73.013 E17.52250
G1 X122.264 Y73.595 E17.66169
G1 X123.368 Y74.264 E17.80088
G1 X124.538 Y75.107 E17.95645
G1 X125.520 Y75.942 E18.09564
G1 X126.437 Y76.850 E18.23483
G1 X127.283 Y77.824 E18.37402
G1 X128.052 Y78.860 E18.51321
G1 X128.741 Y79.950 E18.65239
G1 X129.278 Y80.953 E18.77520
G1 X129.660 Y81.802 E18.87557
G1 X129.862 Y82.272 E18.93078
G1 X130.242 Y83.345 E19.05358
G1 X130.585 Y84.588 E19.19276
G1 X130.833 Y85.854 E19.33195
G1 X130.985 Y87.135 E19.47114
G1 X131.040 Y88.424 E19.61033
G1 X130.985 Y89.865 E19.76590
G1 X130.833 Y91.146 E19.90509
G1 X130.585 Y92.412 E20.04428
G1 X130.287 Y93.510 E20.16708
G1 X129.982 Y94.389 E20.26746
G1 X129.805 Y94.869 E20.32266
G1 X129.345 Y95.910 E20.44546
G1 X128.741 Y97.050 E20.58465
G1 X128.052 Y98.140 E20.72384
G1 X127.283 Y99.176 E20.86303
G1 X126.333 Y100.261 E21.01860
G1 X125.408 Y101.160 E21.15779
G1 X124.538 Y101.893 E21.28059
G1 X123.495 Y102.652 E21.41978
G1 X122.397 Y103.330 E21.55897
G1 X121.251 Y103.923 E21.69816
G1 X120.064 Y104.428 E21.83735
G1 X118.696 Y104.884 E21.99292
G1 X117.444 Y105.192 E22.13211
G1 X116.171 Y105.405 E22.27130
G1 X114.887 Y105.521 E22.41049
G1 X113.749 Y105.543 E22.53329
G1 X112.461 Y105.476 E22.67247
G1 X111.181 Y105.311 E22.81166
G1 X109.918 Y105.050 E22.95085
G1 X108.678 Y104.694 E23.09004
G1 X107.468 Y104.246 E23.22923
G1 X106.296 Y103.707 E23.36842
G1 X105.038 Y103.002 E23.52399
G1 X103.967 Y102.283 E23.66318
G1 X102.954 Y101.485 E23.80237
G1 X102.112 Y100.719 E23.92517
G1 X101.469 Y100.047 E24.02554
G1 X101.122 Y99.671 E24.08075
G1 X100.405 Y98.787 E24.20355
G1 X99.666 Y97.730 E24.34274
G1 X98.937 Y96.486 E24.49831
G1 X98.376 Y95.324 E24.63750
G1 X97.905 Y94.123 E24.77669
G1 X97.526 Y92.890 E24.91588
G1 X97.269 Y91.781 E25.03868
G1 X97.123 Y90.862 E25.13905
G1 X97.052 Y90.356 E25.19426
G1 X96.966 Y89.221 E25.31706
G1 X96.960 Y87.931 E25.45625
G1 X97.052 Y86.644 E25.59544
G1 X97.241 Y85.368 E25.73463
G1 X97.526 Y84.110 E25.87381
G1 X97.956 Y82.734 E26.02938
G1 X98.438 Y81.537 E26.16857
G1 X99.009 Y80.380 E26.30776
G1 X99.666 Y79.270 E26.44695
G1 X100.420 Y78.195 E26.58867
G1 X101.020 Y78.614 F12000.000
G1 X101.762 Y77.706 E26.71519 F1200.000
G1 X102.524 Y76.899 E26.83501
G1 X103.530 Y75.984 E26.98164
G1 X104.405 Y75.301 E27.10146
G1 X105.431 Y74.614 E27.23469
G1 X106.616 Y73.949 E27.38132
G1 X107.623 Y73.481 E27.50114
G1 X108.778 Y73.042 E27.63437
G1 X110.082 Y72.661 E27.78100
G1 X111.169 Y72.432 E27.90082
G1 X112.392 Y72.264 E28.03405
G1 X113.624 Y72.189 E28.16728
G1 X114.513 Y72.202 E28.26318
G1 X114.983 Y72.215 E28.31392 F1200.000
G1 X116.089 Y72.320 E28.43374
G1 X117.306 Y72.525 E28.56697
G1 X118.505 Y72.821 E28.70019
G1 X119.678 Y73.207 E28.83342
G1 X120.818 Y73.680 E28.96665
G1 X121.920 Y74.239 E29.09988
G1 X122.975 Y74.879 E29.23310
G1 X124.078 Y75.674 E29.37974
G1 X125.019 Y76.473 E29.51297
G1 X125.812 Y77.251 E29.63279
G1 X126.401 Y77.916 E29.72869
G1 X126.707 Y78.273 E29.77942
G1 X127.373 Y79.162 E29.89924
G1 X128.041 Y80.200 E30.03247
G1 X128.629 Y81.286 E30.16570
G1 X129.178 Y82.529 E30.31233
G1 X129.586 Y83.694 E30.44556
G1 X129.905 Y84.887 E30.57879
G1 X130.133 Y86.101 E30.71202
G1 X130.259 Y87.204 E30.83184
G1 X130.310 Y88.438 E30.96506
G1 X130.268 Y89.672 E31.09829
G1 X130.133 Y90.899 E31.23152
G1 X129.905 Y92.113 E31.36475
G1 X129.586 Y93.306 E31.49798
G1 X129.178 Y94.471 E31.63120
G1 X128.683 Y95.602 E31.76443
G1 X128.104 Y96.693 E31.89766
G1 X127.444 Y97.736 E32.03089
G1 X126.707 Y98.727 E32.16412
G1 X125.812 Y99.749 E32.31075
G1 X124.927 Y100.611 E32.44398
G1 X124.078 Y101.326 E32.56380
G1 X123.079 Y102.052 E32.69702
G1 X122.028 Y102.700 E32.83025
G1 X120.931 Y103.267 E32.96348
G1 X119.794 Y103.749 E33.09671
G1 X118.505 Y104.179 E33.24334
G1 X117.306 Y104.475 E33.37657
G1 X116.089 Y104.680 E33.50980
G1 X114.859 Y104.792 E33.64303
G1 X113.749 Y104.813 E33.76285
G1 X112.861 Y104.767 E33.85875
G1 X112.392 Y104.736 E33.90948
G1 X111.291 Y104.589 E34.02930
G1 X110.082 Y104.339 E34.16253
G1 X108.895 Y103.997 E34.29576
G1 X107.738 Y103.567 E34.42899
G1 X106.616 Y103.051 E34.56221
G1 X105.431 Y102.386 E34.70885
G1 X104.405 Y101.699 E34.84208
G1 X103.435 Y100.936 E34.97530
G1 X102.613 Y100.188 E35.09513
G1 X101.762 Y99.294 E35.22835
G1 X100.980 Y98.338 E35.36158
G1 X100.274 Y97.326 E35.49481
G1 X99.646 Y96.263 E35.62804
G1 X99.100 Y95.155 E35.76126
G1 X98.597 Y93.892 E35.90790
G1 X98.234 Y92.712 E36.04112
G1 X97.984 Y91.630 E36.16095
G1 X97.845 Y90.752 E36.25685
G1 X97.779 Y90.287 E36.30758
G1 X97.695 Y89.179 E36.42740
G1 X97.690 Y87.945 E36.56063
G1 X97.779 Y86.713 E36.69386
G1 X97.960 Y85.492 E36.82709
G1 X98.234 Y84.288 E36.96032
G1 X98.639 Y82.991 E37.10695
G1 X99.100 Y81.845 E37.24017
G1 X99.646 Y80.737 E37.37340
G1 X100.274 Y79.674 E37.50663
G1 X100.987 Y78.654 E37.64090
G1 X101.587 Y79.073 F12000.000
G1 X102.302 Y78.197 E37.76295 F1200.000
G1 X103.045 Y77.410 E37.87979
G1 X103.989 Y76.551 E38.01748
G1 X104.843 Y75.885 E38.13432
G1 X105.824 Y75.229 E38.26159
G1 X106.937 Y74.605 E38.39928
G1 X107.919 Y74.149 E38.51612
G1 X109.021 Y73.730 E38.64339
G1 X110.246 Y73.373 E38.78108
G1 X111.306 Y73.149 E38.89792
G1 X112.475 Y72.989 E39.02519
G1 X113.749 Y72.917 E39.16288
G1 X114.928 Y72.943 E39.29015 F1200.000
G1 X116.006 Y73.045 E39.40699
G1 X116.842 Y73.185 E39.49842
G1 X117.264 Y73.262 E39.54469
G1 X118.314 Y73.525 E39.66153
G1 X119.434 Y73.895 E39.78879
G1 X120.523 Y74.348 E39.91606
G1 X121.575 Y74.882 E40.04333
G1 X122.583 Y75.494 E40.17059
G1 X123.618 Y76.241 E40.30829
G1 X124.518 Y77.004 E40.43556
G1 X125.291 Y77.762 E40.55240
G1 X125.852 Y78.397 E40.64383
G1 X126.131 Y78.722 E40.69009
G1 X126.781 Y79.588 E40.80693
G1 X127.418 Y80.581 E40.93420
G1 X127.979 Y81.619 E41.06147
G1 X128.459 Y82.696 E41.18873
G1 X128.857 Y83.806 E41.31600
G1 X129.191 Y85.038 E41.45369
G1 X129.409 Y86.197 E41.58096
G1 X129.532 Y87.273 E41.69780
G1 X129.580 Y88.452 E41.82507
G1 X129.539 Y89.630 E41.95233
G1 X129.409 Y90.803 E42.07960
G1 X129.191 Y91.962 E42.20687
G1 X128.886 Y93.101 E42.33414
G1 X128.495 Y94.214 E42.46140
G1 X128.021 Y95.294 E42.58867
G1 X127.467 Y96.336 E42.71594
G1 X126.836 Y97.332 E42.84320
