; generated by Slic3r 1.2.9 on 2016-01-08 at 20:35:18

; external perimeters extrusion width = 0.35mm
; perimeters extrusion width = 0.39mm
; infill extrusion width = 0.39mm
; solid infill extrusion width = 0.39mm
; top infill extrusion width = 0.39mm

M107
T0                                  ; T0   : Select Tool 0
M104 S220     ; M104 : Set extruder temperature to 220
G28                                 ; G28  : Move to Origin
G90                                 ; G90  : Set to Absolute Positioning
M106 S0                             ; M106 : Fan On
G92 E0                              ; G92  : Set Position
G1 Z1 F2000                         ; Rapid move to (Z:1) at feedrate: 2000 mm/min (33.33 mm/s)
M109 S220     ; M109 : Set Extruder Temperature and Wait
; -----------------------------------------------------------------------------------------
G1 Z0 E0 F2000      ; Rapid move to (Z:0) extrude to: 0mm at feedrate: 2000 mm/min (33.33 mm/s)
G1 X65 E7 F1500     ; Rapid move to (X:65) extrude to: 7mm at feedrate: 1500 mm/min (25.00 mm/s)
G1 X8 Y2 E14 F1500  ; Rapid move to (X:8, Y:2) extrude to: 14mm at feedrate: 1500 mm/min (25.00 mm/s)
G92 E0              ; G92 : Set Position
G1 E-3 F1000        ; Rapid move extrude to: -3mm at feedrate: 1000 mm/min (16.67 mm/s)
G90                 ; G90 : Set to Absolute Positioning
G21                 ; G21 : Set Units to Millimeters
M104 S220.0         ; M104 : Set extruder temperature to 220.0
G21 ; set units to millimeters
G90 ; use absolute coordinates
M82 ; use absolute distances for extrusion
G92 E0
G1 E-4.50000 F12000.00000
G92 E0
G1 Z0.350 F12000.000
G1 X25.634 Y61.699 F12000.000
G1 E4.50000 F12000.00000
G1 X32.714 Y59.375 E5.19544 F2400.000
G1 X33.467 Y59.176 E5.26812
G1 X47.297 Y56.390 E6.58478
G1 X65.029 Y53.909 E8.25587
G1 X87.561 Y51.454 E10.37116
G1 X118.154 Y48.713 E13.23777
G1 X151.159 Y46.213 E16.32695
G1 X189.230 Y43.709 E19.88775
G1 X190.085 Y43.708 E19.96749
G1 X192.548 Y43.864 E20.19782
G1 X193.369 Y43.968 E20.27513 F2400.000
G1 X195.836 Y44.439 E20.50952
G1 X196.839 Y44.713 E20.60655
G1 X200.381 Y45.988 E20.95789
G1 X201.509 Y46.519 E21.07427
G1 X204.749 Y48.436 E21.42558
G1 X205.759 Y49.169 E21.54202
G1 X208.582 Y51.658 E21.89329
G1 X209.434 Y52.566 E22.00948
G1 X211.742 Y55.540 E22.36085
G1 X212.411 Y56.594 E22.47732
G1 X214.120 Y59.948 E22.82864
G1 X214.579 Y61.108 E22.94505
G1 X215.629 Y64.723 E23.29637
G1 X215.863 Y65.948 E23.41275
G1 X216.217 Y69.695 E23.76407
G1 X216.217 Y70.941 E23.88036
G1 X215.863 Y74.689 E24.23167
G1 X215.629 Y75.914 E24.34806
G1 X214.579 Y79.529 E24.69937
G1 X214.120 Y80.688 E24.81578
G1 X199.196 Y109.805 E27.86941
G1 X197.811 Y111.634 E28.08345
G1 X196.789 Y112.414 E28.20343
G1 X189.646 Y116.838 E28.98759
G1 X188.205 Y117.507 E29.13586
G1 X187.013 Y117.894 E29.25283
G1 X186.120 Y118.117 E29.33879
G1 X159.120 Y122.891 E31.89776
G1 X156.789 Y123.252 E32.11788
G1 X108.354 Y128.259 E36.66233
G1 X40.118 Y133.250 E43.04771
G1 X39.635 Y133.267 E43.09284
G1 X37.123 Y133.267 E43.32724
G1 X36.293 Y133.215 E43.40489
G1 X33.801 Y132.900 E43.63930
G1 X32.783 Y132.689 E43.73631
G1 X29.168 Y131.639 E44.08763
G1 X28.009 Y131.180 E44.20401
G1 X24.655 Y129.471 E44.55533
G1 X23.602 Y128.803 E44.67170
G1 X20.628 Y126.496 E45.02302
G1 X19.719 Y125.642 E45.13940
G1 X17.229 Y122.819 E45.49072
G1 X16.496 Y121.810 E45.60709
G1 X14.580 Y118.570 E45.95841
G1 X14.123 Y117.636 E46.05543
G1 X13.198 Y115.301 E46.28983
G1 X12.941 Y114.510 E46.36748
G1 X12.317 Y112.077 E46.60188
G1 X12.136 Y111.032 E46.70091
G1 X11.785 Y107.184 E47.06150
G1 X11.902 Y105.203 E47.24673
G1 X19.817 Y68.019 E50.79479
G1 X20.817 Y65.674 E51.03269
G1 X21.430 Y64.772 E51.13449
G1 X23.360 Y62.902 E51.38526
G1 X24.151 Y62.400 E51.47270
G1 X25.587 Y61.722 E51.62089
G1 E47.12089 F12000.00000
G92 E0
G1 X57.972 Y70.318 F12000.000
G1 E4.50000 F12000.00000
G1 X58.143 Y68.510 E4.66950 F1920.000
G1 X58.648 Y66.771 E4.83849
G1 X59.483 Y65.189 E5.00544
G1 X59.820 Y64.670 E5.06323
G1 X60.581 Y63.750 E5.17467
G1 X61.028 Y63.297 E5.23404
G1 X61.936 Y62.546 E5.34399
G1 X62.460 Y62.187 E5.40335
G1 X63.493 Y61.619 E5.51333
G1 X64.076 Y61.364 E5.57269
G1 X65.196 Y60.999 E5.68266
G1 X65.818 Y60.866 E5.74197
G1 X67.633 Y60.671 E5.91236
G1 X69.393 Y60.864 E6.07764
G1 X70.021 Y60.992 E6.13746
G1 X71.137 Y61.354 E6.24691
G1 X71.722 Y61.604 E6.30627
G1 X72.754 Y62.172 E6.41624
G1 X73.282 Y62.527 E6.47560
G1 X74.190 Y63.278 E6.58557
G1 X74.642 Y63.725 E6.64493
G1 X75.393 Y64.633 E6.75490
G1 X75.753 Y65.158 E6.81426
G1 X76.320 Y66.190 E6.92423
G1 X76.567 Y66.776 E6.98357
G1 X77.099 Y68.510 E7.15285
G1 X77.270 Y70.318 E7.32235
G1 X77.099 Y72.126 E7.49184
G1 X76.567 Y73.860 E7.66112
G1 X76.352 Y74.381 E7.71368
G1 X75.755 Y75.474 E7.82990
G1 X75.422 Y75.949 E7.88405
G1 X74.238 Y77.341 E8.05463
G1 X72.791 Y78.465 E8.22564
G1 X71.173 Y79.290 E8.39512
G1 X69.429 Y79.796 E8.56461
G1 X67.621 Y79.967 E8.73411
G1 X65.813 Y79.796 E8.90361
G1 X64.069 Y79.290 E9.07310
G1 X62.451 Y78.465 E9.24261
G1 X61.016 Y77.352 E9.41210
G1 X59.840 Y75.978 E9.58083
G1 X59.484 Y75.447 E9.64058
G1 X58.656 Y73.885 E9.80554
G1 X58.143 Y72.126 E9.97655
G1 X57.972 Y70.318 E10.14602
G1 E5.64602 F12000.00000
G92 E0
G1 X42.472 Y70.318 F12000.000
G1 E4.50000 F12000.00000
G1 X42.598 Y68.984 E4.62508 F1920.000
G1 X42.984 Y67.724 E4.74811
G1 X43.160 Y67.289 E4.79184
G1 X43.581 Y66.522 E4.87349
G1 X43.848 Y66.124 E4.91828
G1 X44.399 Y65.458 E4.99894
G1 X44.736 Y65.116 E5.04372
G1 X45.402 Y64.565 E5.12440
G1 X45.797 Y64.293 E5.16918
G1 X46.555 Y63.877 E5.24986
G1 X46.994 Y63.683 E5.29464
G1 X47.816 Y63.416 E5.37532
G1 X48.285 Y63.315 E5.42006
G1 X49.632 Y63.170 E5.54647
G1 X50.987 Y63.322 E5.67378
G1 X51.401 Y63.408 E5.71322
G1 X52.277 Y63.696 E5.79927
G1 X52.659 Y63.861 E5.83816
G1 X53.471 Y64.311 E5.92474
G1 X53.815 Y64.545 E5.96362
G1 X54.529 Y65.139 E6.05024
G1 X54.823 Y65.434 E6.08908
G1 X55.427 Y66.171 E6.17806
G1 X55.641 Y66.498 E6.21452
G1 X56.268 Y67.686 E6.33994
G1 X56.644 Y68.979 E6.46553
G1 X56.770 Y70.318 E6.59111
G1 X56.644 Y71.658 E6.71669
G1 X56.268 Y72.950 E6.84228
G1 X55.657 Y74.149 E6.96786
G1 X54.832 Y75.212 E7.09344
G1 X53.816 Y76.082 E7.21831
G1 X53.413 Y76.351 E7.26352
G1 X52.248 Y76.967 E7.38656
G1 X50.961 Y77.341 E7.51163
G1 X49.621 Y77.467 E7.63721
G1 X48.281 Y77.341 E7.76279
G1 X47.002 Y76.949 E7.88767
G1 X46.624 Y76.785 E7.92615
G1 X45.414 Y76.099 E8.05592
G1 X44.409 Y75.212 E8.18099
G1 X43.585 Y74.149 E8.30657
G1 X42.974 Y72.950 E8.43215
G1 X42.598 Y71.658 E8.55773
G1 X42.472 Y70.318 E8.68332
G1 E4.18332 F12000.00000
G92 E0
G1 X31.974 Y70.318 F12000.000
G1 E4.50000 F12000.00000
G1 X32.305 Y68.592 E4.66407 F1920.000
G1 X32.725 Y67.853 E4.74337
G1 X33.287 Y67.100 E4.83106
G1 X33.444 Y66.952 E4.85120
G1 X34.600 Y66.166 E4.98168
G1 X34.913 Y66.006 E5.01451
G1 X35.513 Y65.846 E5.07239
G1 X36.643 Y65.671 E5.17912
G1 X37.774 Y65.849 E5.28604
G1 X38.388 Y66.030 E5.34575
G1 X38.576 Y66.122 E5.36530
G1 X39.738 Y66.911 E5.49633
G1 X40.002 Y67.143 E5.52918
G1 X40.372 Y67.641 E5.58707
G1 X40.942 Y68.608 E5.69177
G1 X41.268 Y70.318 E5.85430
G1 X40.937 Y72.045 E6.01837
G1 X40.517 Y72.784 E6.09768
G1 X40.039 Y73.442 E6.17358
G1 X39.813 Y73.685 E6.20461
G1 X39.298 Y74.068 E6.26451
G1 X38.331 Y74.639 E6.36925
G1 X36.621 Y74.965 E6.53176
G1 X35.786 Y74.847 E6.61042
G1 X34.915 Y74.627 E6.69430
G1 X34.600 Y74.470 E6.72712
G1 X33.444 Y73.684 E6.85760
G1 X33.287 Y73.537 E6.87774
G1 X32.725 Y72.784 E6.96543
G1 X32.305 Y72.045 E7.04473
G1 X31.974 Y70.318 E7.20880
G1 E2.70880 F12000.00000
G92 E0
G1 X26.474 Y70.318 F12000.000
G1 E4.50000 F12000.00000
G1 X26.623 Y69.533 E4.57455 F1920.000
G1 X27.029 Y68.909 E4.64408
G1 X27.161 Y68.755 E4.66294
G1 X27.658 Y68.418 E4.71894
G1 X27.834 Y68.330 E4.73731
G1 X28.621 Y68.172 E4.81222
G1 X29.345 Y68.319 E4.88124
G1 X29.536 Y68.386 E4.90013
G1 X30.131 Y68.804 E4.96799
G1 X30.521 Y69.355 E5.03095
G1 X30.587 Y69.477 E5.04386
G1 X30.768 Y70.318 E5.12422
G1 X30.617 Y71.109 E5.19931
G1 X30.189 Y71.783 E5.27387
G1 X29.406 Y72.316 E5.36228
G1 X28.621 Y72.465 E5.43685
G1 X27.834 Y72.306 E5.51179
G1 X27.658 Y72.218 E5.53019
G1 X27.161 Y71.881 E5.58620
G1 X27.029 Y71.728 E5.60505
G1 X26.625 Y71.108 E5.67411
G1 X26.474 Y70.318 E5.74917
G1 E1.24917 F12000.00000
G92 E0
G1 X78.472 Y70.318 F12000.000
G1 E4.50000 F12000.00000
G1 X78.687 Y68.042 E4.71341 F1920.000
G1 X79.325 Y65.846 E4.92683
G1 X80.360 Y63.813 E5.13973
G1 X81.772 Y62.049 E5.35061
G1 X82.325 Y61.475 E5.42496
G1 X83.470 Y60.528 E5.56366
G1 X84.124 Y60.080 E5.63762
G1 X85.431 Y59.361 E5.77687
G1 X86.157 Y59.044 E5.85082
G1 X87.576 Y58.583 E5.99008
G1 X88.351 Y58.418 E6.06396
G1 X90.627 Y58.172 E6.27770
G1 X92.861 Y58.416 E6.48740
G1 X93.642 Y58.575 E6.56179
G1 X95.056 Y59.034 E6.70051
G1 X95.784 Y59.346 E6.77446
G1 X97.092 Y60.065 E6.91372
G1 X97.748 Y60.508 E6.98766
G1 X98.898 Y61.459 E7.12692
G1 X99.460 Y62.017 E7.20087
G1 X100.412 Y63.167 E7.34012
G1 X100.859 Y63.821 E7.41407
G1 X101.589 Y65.152 E7.55577
G1 X101.886 Y65.858 E7.62724
G1 X102.555 Y68.042 E7.84038
G1 X102.770 Y70.318 E8.05379
G1 X102.554 Y72.595 E8.26720
G1 X101.885 Y74.778 E8.48032
G1 X101.578 Y75.508 E8.55424
G1 X100.859 Y76.816 E8.69350
G1 X100.412 Y77.469 E8.76744
G1 X99.464 Y78.614 E8.90615
G1 X98.890 Y79.167 E8.98050
G1 X97.126 Y80.579 E9.19139
G1 X95.093 Y81.614 E9.40429
G1 X92.898 Y82.252 E9.61770
G1 X90.621 Y82.467 E9.83111
G1 X88.344 Y82.252 E10.04453
G1 X86.149 Y81.614 E10.25794
G1 X84.116 Y80.579 E10.47085
G1 X82.351 Y79.168 E10.68172
G1 X81.804 Y78.626 E10.75353
G1 X80.363 Y76.828 E10.96864
G1 X79.325 Y74.791 E11.18203
G1 X78.687 Y72.595 E11.39545
G1 X78.472 Y70.318 E11.60886
G1 E7.10886 F12000.00000
G92 E0
G1 X103.974 Y70.285 F12000.000
G1 E4.50000 F12000.00000
G1 X104.232 Y67.568 E4.75477 F1920.000
G1 X104.715 Y65.800 E4.92582
G1 X105.026 Y64.902 E5.01453
G1 X105.389 Y64.098 E5.09681
G1 X106.261 Y62.510 E5.26590
G1 X106.792 Y61.724 E5.35443
G1 X107.943 Y60.333 E5.52298
G1 X108.612 Y59.660 E5.61151
G1 X110.004 Y58.509 E5.78005
G1 X110.787 Y57.973 E5.86858
G1 X112.369 Y57.103 E6.03713
G1 X113.239 Y56.724 E6.12566
G1 X114.956 Y56.166 E6.29420
G1 X115.878 Y55.942 E6.38277
G1 X116.808 Y55.812 E6.47041
G1 X118.659 Y55.672 E6.64363
G1 X120.453 Y55.813 E6.81159
G1 X121.394 Y55.949 E6.90033
G1 X122.251 Y56.155 E6.98259
G1 X123.975 Y56.715 E7.15169
G1 X124.846 Y57.089 E7.24023
G1 X126.429 Y57.959 E7.40876
G1 X127.215 Y58.490 E7.49732
G1 X128.607 Y59.641 E7.66584
G1 X129.290 Y60.300 E7.75446
G1 X129.898 Y61.015 E7.84206
G1 X130.990 Y62.469 E8.01175
G1 X132.242 Y64.925 E8.26909
G1 X133.011 Y67.573 E8.52640
G1 X133.270 Y70.318 E8.78374
G1 X133.011 Y73.063 E9.04107
G1 X132.242 Y75.711 E9.29839
G1 X130.989 Y78.167 E9.55571
G1 X129.898 Y79.622 E9.72542
G1 X129.290 Y80.336 E9.81300
G1 X128.607 Y80.996 E9.90162
G1 X127.215 Y82.147 E10.07014
G1 X126.429 Y82.678 E10.15870
G1 X124.841 Y83.551 E10.32779
G1 X124.038 Y83.913 E10.41006
G1 X123.139 Y84.224 E10.49878
G1 X121.371 Y84.707 E10.66982
G1 X118.621 Y84.967 E10.92766
G1 X115.876 Y84.708 E11.18499
G1 X113.228 Y83.939 E11.44232
G1 X110.772 Y82.687 E11.69965
G1 X109.318 Y81.596 E11.86932
G1 X108.603 Y80.987 E11.95697
G1 X107.943 Y80.304 E12.04555
G1 X106.792 Y78.912 E12.21410
G1 X106.261 Y78.126 E12.30263
G1 X105.389 Y76.538 E12.47173
G1 X105.026 Y75.735 E12.55400
G1 X104.715 Y74.836 E12.64272
G1 X104.232 Y73.069 E12.81376
G1 X103.974 Y70.285 E13.07463
G1 E8.57463 F12000.00000
G92 E0
G1 X134.472 Y70.318 F12000.000
G1 E4.50000 F12000.00000
G1 X134.776 Y67.105 E4.80124 F1920.000
G1 X135.676 Y64.005 E5.10248
G1 X137.144 Y61.124 E5.40423
G1 X138.432 Y59.408 E5.60455
G1 X139.153 Y58.568 E5.70787
G1 X139.899 Y57.845 E5.80479
G1 X141.585 Y56.454 E6.00875
G1 X142.450 Y55.867 E6.10632
G1 X144.361 Y54.819 E6.30971
G1 X145.320 Y54.404 E6.40729
G1 X147.336 Y53.749 E6.60510
G1 X148.411 Y53.489 E6.70828
G1 X149.495 Y53.337 E6.81048
G1 X151.616 Y53.173 E7.00905
G1 X153.766 Y53.337 E7.21024
G1 X154.862 Y53.496 E7.31361
G1 X155.872 Y53.738 E7.41053
G1 X157.949 Y54.416 E7.61443
G1 X158.908 Y54.831 E7.71203
G1 X160.817 Y55.883 E7.91543
G1 X161.681 Y56.471 E8.01297
G1 X163.359 Y57.862 E8.21634
G1 X164.098 Y58.602 E8.31394
G1 X165.485 Y60.282 E8.51732
G1 X166.072 Y61.147 E8.61489
G1 X167.110 Y63.038 E8.81616
G1 X167.551 Y64.011 E8.91587
G1 X167.904 Y65.048 E9.01815
G1 X168.466 Y67.105 E9.21711
G1 X168.770 Y70.318 E9.51835
G1 X168.466 Y73.532 E9.81959
G1 X167.566 Y76.631 E10.12083
G1 X166.098 Y79.512 E10.42257
G1 X164.810 Y81.229 E10.62290
G1 X164.088 Y82.069 E10.72622
G1 X163.343 Y82.791 E10.82314
G1 X161.657 Y84.182 E11.02709
G1 X160.792 Y84.770 E11.12467
G1 X158.881 Y85.817 E11.32806
G1 X157.922 Y86.232 E11.42564
G1 X155.906 Y86.887 E11.62345
G1 X154.831 Y87.147 E11.72665
G1 X153.747 Y87.300 E11.82886
G1 X151.621 Y87.467 E12.02786
G1 X149.495 Y87.300 E12.22687
G1 X148.411 Y87.147 E12.32908
G1 X147.336 Y86.887 E12.43228
G1 X145.320 Y86.232 E12.63009
G1 X144.361 Y85.817 E12.72767
G1 X142.450 Y84.770 E12.93106
G1 X141.585 Y84.182 E13.02863
G1 X139.899 Y82.791 E13.23259
G1 X139.153 Y82.069 E13.32951
G1 X138.432 Y81.229 E13.43283
G1 X137.144 Y79.512 E13.63315
G1 X135.676 Y76.631 E13.93490
G1 X134.776 Y73.532 E14.23614
G1 X134.472 Y70.318 E14.53738
G1 E10.03738 F12000.00000
G92 E0
G1 X192.952 Y106.782 F12000.000
G1 E4.50000 F12000.00000
G1 X192.718 Y105.738 E4.59983 F1920.000
G1 X192.613 Y105.583 E4.61730
G1 X192.051 Y104.966 E4.69524
G1 X191.760 Y104.799 E4.72652
G1 X191.071 Y104.563 E4.79444
G1 X190.866 Y104.563 E4.81362
G1 X189.999 Y104.692 E4.89546
G1 X189.388 Y105.080 E4.96296
G1 X188.920 Y105.652 E5.03200
G1 X188.733 Y106.291 E5.09410
G1 X188.602 Y107.300 E5.18901
G1 X188.347 Y108.401 E5.29454
G1 X187.958 Y109.138 E5.37227
G1 X187.780 Y109.407 E5.40242
G1 X187.231 Y110.030 E5.47990
G1 X186.984 Y110.254 E5.51102
G1 X186.298 Y110.721 E5.58849
G1 X186.001 Y110.873 E5.61959
G1 X184.900 Y111.248 E5.72816
G1 X183.737 Y111.321 E5.83693
G1 X182.603 Y111.106 E5.94463
G1 X181.067 Y110.262 E6.10820
G1 X179.954 Y108.916 E6.27127
G1 X179.461 Y107.544 E6.40728
G1 X179.276 Y105.340 E6.61368
G1 X178.903 Y104.055 E6.73858
G1 X178.034 Y102.476 E6.90681
G1 X177.152 Y101.474 E7.03137
G1 X175.698 Y100.417 E7.19914
G1 X174.032 Y99.758 E7.36638
G1 X172.254 Y99.533 E7.53360
G1 X170.471 Y99.759 E7.70133
G1 X169.210 Y100.213 E7.82638
G1 X168.052 Y100.898 E7.95197
G1 X167.043 Y101.788 E8.07756
G1 X166.225 Y102.842 E8.20210
G1 X165.331 Y104.906 E8.41201
G1 X164.958 Y108.488 E8.74818
G1 X164.453 Y110.229 E8.91729
G1 X163.282 Y112.358 E9.14406
G1 X162.088 Y113.712 E9.31255
G1 X160.658 Y114.787 E9.47949
G1 X160.114 Y115.113 E9.53865
G1 X158.413 Y115.844 E9.71143
G1 X157.866 Y116.003 E9.76462
G1 X156.090 Y116.311 E9.93283
G1 X153.671 Y116.160 E10.15910
G1 X151.909 Y115.615 E10.33120
G1 X151.373 Y115.393 E10.38533
G1 X150.293 Y114.796 E10.50054
G1 X149.818 Y114.473 E10.55412
G1 X148.857 Y113.673 E10.67084
G1 X148.465 Y113.268 E10.72343
G1 X147.332 Y111.852 E10.89267
G1 X146.752 Y110.754 E11.00859
G1 X146.522 Y110.222 E11.06269
G1 X146.132 Y109.082 E11.17515
G1 X145.954 Y107.883 E11.28828
G1 X145.639 Y104.407 E11.61397
G1 X145.002 Y102.215 E11.82706
G1 X143.910 Y100.158 E12.04435
G1 X143.501 Y99.556 E12.11225
G1 X142.021 Y97.825 E12.32482
G1 X140.200 Y96.457 E12.53738
G1 X139.574 Y96.086 E12.60527
G1 X137.448 Y95.161 E12.82173
G1 X136.755 Y94.960 E12.88905
G1 X134.467 Y94.557 E13.10587
G1 X131.422 Y94.749 E13.39058
G1 X129.231 Y95.386 E13.60354
G1 X127.199 Y96.421 E13.81639
G1 X125.383 Y97.879 E14.03371
G1 X124.869 Y98.394 E14.10161
G1 X123.446 Y100.172 E14.31417
G1 X122.720 Y101.547 E14.45931
G1 X122.427 Y102.223 E14.52808
G1 X121.936 Y103.660 E14.66981
G1 X121.650 Y105.158 E14.81209
G1 X121.463 Y108.514 E15.12577
G1 X120.861 Y111.209 E15.38350
G1 X120.166 Y112.888 E15.55317
G1 X119.751 Y113.737 E15.64135
G1 X119.297 Y114.506 E15.72466
G1 X118.758 Y115.276 E15.81239
G1 X117.608 Y116.710 E15.98395
G1 X116.249 Y117.948 E16.15550
G1 X115.514 Y118.534 E16.24324
G1 X114.771 Y119.039 E16.32708
G1 X113.998 Y119.496 E16.41092
G1 X113.161 Y119.924 E16.49869
G1 X112.336 Y120.281 E16.58253
